img/logo.svg

<svg width="120" height="66" viewBox="0 0 120 66" fill="none" xmlns="http://www.w3.org/2000/svg">
<path d="M39.6553 40.0361V32.5898H56.7451V47.8486C53.4736 50.0784 50.5765 51.6003 48.0537 52.4141C45.5472 53.2116 42.5687 53.6104 39.1182 53.6104C34.8701 53.6104 31.4033 52.8861 28.7178 51.4375C26.0485 49.9889 23.9733 47.8324 22.4922 44.9678C21.0273 42.1032 20.2949 38.8154 20.2949 35.1045C20.2949 31.1982 21.1006 27.8047 22.7119 24.9238C24.3232 22.0267 26.6833 19.8294 29.792 18.332C32.2171 17.1764 35.4805 16.5986 39.582 16.5986C43.5371 16.5986 46.4912 16.9567 48.4443 17.6729C50.4137 18.389 52.0413 19.5039 53.3271 21.0176C54.6292 22.515 55.6058 24.4193 56.2568 26.7305L45.5879 28.6348C45.1484 27.2839 44.3997 26.2503 43.3418 25.5342C42.3001 24.818 40.9655 24.46 39.3379 24.46C36.9128 24.46 34.9759 25.3063 33.5273 26.999C32.0951 28.6755 31.3789 31.3366 31.3789 34.9824C31.3789 38.8561 32.1032 41.623 33.5518 43.2832C35.0166 44.9434 37.0511 45.7734 39.6553 45.7734C40.8923 45.7734 42.0723 45.5944 43.1953 45.2363C44.3184 44.8783 45.6042 44.2679 47.0527 43.4053V40.0361H39.6553Z" fill="white"/>
<path d="M61.9209 35.1289C61.9209 29.2858 63.5485 24.7367 66.8037 21.4814C70.0589 18.2262 74.5918 16.5986 80.4023 16.5986C86.3594 16.5986 90.9492 18.2018 94.1719 21.4082C97.3945 24.5983 99.0059 29.0742 99.0059 34.8359C99.0059 39.0189 98.2979 42.4531 96.8818 45.1387C95.4821 47.8079 93.4476 49.8913 90.7783 51.3887C88.1253 52.8698 84.8131 53.6104 80.8418 53.6104C76.8053 53.6104 73.4606 52.9674 70.8076 51.6816C68.1709 50.3958 66.0306 48.3613 64.3867 45.5781C62.7428 42.7949 61.9209 39.3118 61.9209 35.1289ZM72.9805 35.1777C72.9805 38.791 73.6478 41.387 74.9824 42.9658C76.3333 44.5446 78.1644 45.334 80.4756 45.334C82.8519 45.334 84.6911 44.5609 85.9932 43.0146C87.2952 41.4684 87.9463 38.6934 87.9463 34.6895C87.9463 31.3203 87.2627 28.8626 85.8955 27.3164C84.5446 25.7539 82.7054 24.9727 80.3779 24.9727C78.1481 24.9727 76.3577 25.762 75.0068 27.3408C73.6559 28.9196 72.9805 31.5319 72.9805 35.1777Z" fill="white"/>
<path d="M0 34H1V66H0V34Z" fill="#CD06FF"/>
<path d="M0 66V65H51V66H0Z" fill="#CD06FF"/>
<path d="M120 32H119V0H120V32Z" fill="#CD06FF"/>
<path d="M120 0V1H69V0H120Z" fill="#CD06FF"/>
</svg>

<svg width="120" height="66" fill="none" xmlns="http://www.w3.org/2000/svg"><path d="M39.655 40.036V32.59h17.09v15.259c-3.271 2.23-6.168 3.751-8.691 4.565-2.507.798-5.485 1.196-8.936 1.196-4.248 0-7.715-.724-10.4-2.172-2.67-1.45-4.745-3.606-6.226-6.47-1.465-2.865-2.197-6.153-2.197-9.864 0-3.906.806-7.3 2.417-10.18 1.611-2.897 3.971-5.095 7.08-6.592 2.425-1.156 5.688-1.733 9.79-1.733 3.955 0 6.91.358 8.862 1.074 1.97.716 3.597 1.83 4.883 3.345 1.302 1.497 2.279 3.401 2.93 5.712l-10.67 1.905c-.439-1.351-1.187-2.385-2.245-3.1-1.042-.717-2.377-1.075-4.004-1.075-2.425 0-4.362.846-5.81 2.539-1.433 1.677-2.15 4.338-2.15 7.983 0 3.874.725 6.641 2.174 8.301 1.465 1.66 3.5 2.49 6.103 2.49 1.237 0 2.417-.179 3.54-.537 1.123-.358 2.41-.968 3.858-1.83v-3.37h-7.398ZM61.92 35.129c0-5.843 1.628-10.392 4.884-13.648 3.255-3.255 7.788-4.882 13.598-4.882 5.957 0 10.547 1.603 13.77 4.81 3.222 3.19 4.834 7.665 4.834 13.427 0 4.183-.708 7.617-2.124 10.303-1.4 2.669-3.434 4.752-6.104 6.25-2.653 1.48-5.965 2.221-9.936 2.221-4.037 0-7.381-.643-10.034-1.928-2.637-1.286-4.777-3.32-6.421-6.104-1.644-2.783-2.466-6.266-2.466-10.45Zm11.06.049c0 3.613.668 6.209 2.002 7.788 1.351 1.579 3.182 2.368 5.494 2.368 2.376 0 4.215-.773 5.517-2.32 1.302-1.546 1.953-4.32 1.953-8.325 0-3.369-.683-5.826-2.05-7.373-1.351-1.562-3.19-2.343-5.518-2.343-2.23 0-4.02.789-5.371 2.368-1.351 1.579-2.026 4.19-2.026 7.837Z" fill="#fff"/><path d="M0 34h1v32H0V34Z" fill="#CD06FF"/><path d="M0 66v-1h51v1H0ZM120 32h-1V0h1v32Z" fill="#CD06FF"/><path d="M120 0v1H69V0h51Z" fill="#CD06FF"/></svg>
